build/img/logo.svg

<svg width="78" height="78" viewBox="0 0 78 78" fill="none" xmlns="http://www.w3.org/2000/svg">
<path d="M63.0559 28.8815L54.2119 28.8947L27.8012 53.7922H10.0354V36.4593L34.2348 13.8486L17.993 13.8992L0 30.6625V64.1511H34.0283L63.0418 36.5687L63.0559 28.8815Z" fill="white"/>
<path d="M43.9721 13.8486L14.9586 41.4318L14.9453 49.1182L23.7884 49.1049L50.1991 24.2075H67.9649V41.5404L43.7656 64.1511L60.0074 64.1013L78.0004 47.338V13.8486H43.9721Z" fill="white"/>
</svg>

<svg width="78" height="78" fill="none" xmlns="http://www.w3.org/2000/svg"><path d="M63.056 28.881l-8.844.014-26.41 24.897H10.034V36.46l24.2-22.61-16.242.05L0 30.663V64.15h34.028l29.014-27.58.014-7.688z" fill="#fff"/><path d="M43.972 13.849L14.96 41.432l-.014 7.686 8.843-.013L50.2 24.208h17.766V41.54l-24.2 22.611 16.242-.05L78 47.338v-33.49H43.972z" fill="#fff"/></svg>
